images/ico-linkedin.svg

<svg viewBox="0 0 25.77 25.72" xmlns="http://www.w3.org/2000/svg"><g fill="#002f3d"><path d="m.42 8.54h5.35v17.18h-5.35zm2.68-8.54a3.1 3.1 0 1 1 -3.1 3.1 3.1 3.1 0 0 1 3.1-3.1"/><path d="m9.12 8.54h5.12v2.35h.07a5.61 5.61 0 0 1 5.05-2.77c5.41 0 6.41 3.56 6.41 8.18v9.42h-5.34v-8.35c0-2 0-4.56-2.77-4.56s-3.2 2.17-3.2 4.41v8.5h-5.34z"/></g></svg>

<svg id="Layer_1" data-name="Layer 1" xmlns="http://www.w3.org/2000/svg" viewBox="0 0 25.77 25.72"><defs><style>.cls-1{fill:#002f3d;}</style></defs><title>linkedin</title><path class="cls-1" d="M.42,8.54H5.77V25.72H.42ZM3.1,0A3.1,3.1,0,1,1,0,3.1,3.1,3.1,0,0,1,3.1,0"/><path class="cls-1" d="M9.12,8.54h5.12v2.35h.07a5.61,5.61,0,0,1,5.05-2.77c5.41,0,6.41,3.56,6.41,8.18v9.42H20.43V17.37c0-2,0-4.56-2.77-4.56s-3.2,2.17-3.2,4.41v8.5H9.12Z"/></svg>
